icons/svgs/messages-question-solid.svg

<svg width="25" height="24" viewBox="0 0 25 24" fill="none" xmlns="http://www.w3.org/2000/svg">
<path d="M0 4.5C0 3.13281 1.09375 2 2.5 2H13.75C15.1172 2 16.25 3.13281 16.25 4.5V12C16.25 13.4062 15.1172 14.5 13.75 14.5H7.89062L4.72656 16.8828C4.53125 17.0391 4.29688 17.0391 4.0625 16.9609C3.86719 16.8438 3.75 16.6484 3.75 16.375V14.5H2.5C1.09375 14.5 0 13.4062 0 12V4.5ZM10 15.75H13.75C15.8203 15.75 17.5 14.0703 17.5 12V7H22.5C23.8672 7 25 8.13281 25 9.5V17C25 18.4062 23.8672 19.5 22.5 19.5H21.25V21.375C21.25 21.6484 21.0938 21.8438 20.8984 21.9609C20.6641 22.0391 20.4297 22.0391 20.2344 21.8828L17.0703 19.5H12.5C11.0938 19.5 10 18.4062 10 17V15.75ZM5.3125 5.63281L5.27344 5.67188C5.15625 6.0625 5.35156 6.53125 5.78125 6.64844C6.17188 6.80469 6.60156 6.60938 6.75781 6.17969V6.14062C6.79688 6.02344 6.91406 5.98438 7.03125 5.98438H8.90625C9.17969 5.98438 9.41406 6.17969 9.41406 6.45312C9.41406 6.64844 9.29688 6.80469 9.17969 6.88281L7.73438 7.74219C7.46094 7.85938 7.34375 8.13281 7.34375 8.40625V8.83594C7.34375 9.26562 7.69531 9.61719 8.125 9.61719C8.51562 9.61719 8.86719 9.26562 8.90625 8.83594L9.92188 8.25C10.5859 7.89844 10.9766 7.19531 10.9766 6.45312C10.9766 5.32031 10.0391 4.42188 8.90625 4.42188H7.03125C6.25 4.42188 5.54688 4.89062 5.3125 5.63281ZM9.14062 11.6875C9.17969 11.3359 8.98438 10.9453 8.63281 10.75C8.32031 10.5547 7.89062 10.5547 7.57812 10.75C7.22656 10.9453 7.03125 11.3359 7.07031 11.6875C7.03125 12.0781 7.22656 12.4688 7.57812 12.6641C7.89062 12.8594 8.32031 12.8594 8.63281 12.6641C8.98438 12.4688 9.17969 12.0781 9.14062 11.6875Z" fill="black"/>
</svg>

<svg xmlns="http://www.w3.org/2000/svg" width="24" height="24" fill="currentColor" class="icon-messages-question-solid" viewBox="0 0 24 24">
  <mask id="a" width="25" height="21" x="0" y="2" maskUnits="userSpaceOnUse" style="mask-type:alpha">
    <path d="M0 4.5C0 3.133 1.094 2 2.5 2h11.25c1.367 0 2.5 1.133 2.5 2.5V12c0 1.406-1.133 2.5-2.5 2.5H7.89l-3.163 2.383c-.196.156-.43.156-.665.078-.195-.117-.312-.313-.312-.586V14.5H2.5A2.47 2.47 0 0 1 0 12zm10 11.25h3.75c2.07 0 3.75-1.68 3.75-3.75V7h5C23.867 7 25 8.133 25 9.5V17c0 1.406-1.133 2.5-2.5 2.5h-1.25v1.875c0 .273-.156.469-.352.586-.234.078-.468.078-.664-.078L17.07 19.5H12.5A2.47 2.47 0 0 1 10 17zM5.313 5.633l-.04.039c-.117.39.079.86.508.976.39.157.82-.039.977-.468v-.04c.039-.117.156-.156.273-.156h1.875c.274 0 .508.196.508.47a.53.53 0 0 1-.234.429l-1.446.86c-.273.116-.39.39-.39.663v.43c0 .43.351.781.781.781.39 0 .742-.351.781-.781l1.016-.586c.664-.352 1.055-1.055 1.055-1.797 0-1.133-.938-2.031-2.07-2.031H7.03c-.781 0-1.484.469-1.718 1.21m3.828 6.055c.039-.352-.157-.743-.508-.938a1.02 1.02 0 0 0-1.055 0c-.351.195-.547.586-.508.938-.039.39.157.78.508.976.313.195.742.195 1.055 0 .351-.195.547-.586.508-.976"/>
  </mask>
  <g mask="url(#a)">
    <path d="M0 0h24v24H0z"/>
  </g>
</svg>
